material/.icons/material/language-haskell.svg

<svg xmlns="http://www.w3.org/2000/svg" viewBox="0 0 24 24"><path d="M2.08 19l4.67-7-4.67-7h3.5l4.67 7-4.67 7h-3.5m4.67 0l4.67-7-4.67-7h3.5l9.34 14h-3.5l-2.92-4.37L10.25 19h-3.5m11.28-4.08l-1.53-2.34h5.42v2.34h-3.89m-2.33-3.5l-1.56-2.34h7.78v2.34H15.7z"/></svg>

<?xml version="1.0" encoding="UTF-8"?><!DOCTYPE svg PUBLIC "-//W3C//DTD SVG 1.1//EN" "http://www.w3.org/Graphics/SVG/1.1/DTD/svg11.dtd"><svg xmlns="http://www.w3.org/2000/svg" xmlns:xlink="http://www.w3.org/1999/xlink" version="1.1" id="mdi-language-haskell" width="24" height="24" viewBox="0 0 24 24"><path d="M2.08,19L6.75,12L2.08,5H5.58L10.25,12L5.58,19H2.08M6.75,19L11.42,12L6.75,5H10.25L19.59,19H16.09L13.17,14.63L10.25,19H6.75M18.03,14.92L16.5,12.58H21.92V14.92H18.03M15.7,11.42L14.14,9.08H21.92V11.42H15.7Z" /></svg>
